!!!SOCIAL_FUNCTION:	tobacco dance songs
!!!PDT:	1932
!!!OTL: No_112_Tobacco_Dance_Song_(d).krn
!!!REG: Wisconsin
!!!LANG: Non-Tone
!!!LING_GROUP: Algonquin
**kern
*staff1
=1-
*clefF4
*k[f#c#g#d#]
*M2/4
8.d#\L
16d#\Jk
4d#\
=2
4c#\
12c#\L
12G#\
16G#\L
48G#\JJk
=3
4G#\
4G#\
=4!|:
8.c#\L
16c#\Jk
4c#\
=5
4B\
12c#\L
12B\
16G#\L
48G#\JJk
=6
4G#\
8G#\L
8E\J
=7||
*M5/8
8G#\L
16G#\L
16G#\J
8G#\
8G#\
16E\Jk
16r
=8||
*M2/4
8G#\L
16G#\L
16G#\JJ
8.E\L
16E\Jk
=9
4E\
8E\
8r
==:|!
*-
